public/img/field-4.svg

<svg width="64" height="64" viewBox="0 0 64 64" fill="none" xmlns="http://www.w3.org/2000/svg">
<g clip-path="url(#clip0)">
<path d="M43.25 18.75C43.9399 18.75 44.5 18.1899 44.5 17.5C44.5 17.4214 44.4927 17.3438 44.4785 17.2686C44.3701 16.689 43.8613 16.25 43.25 16.25C42.6177 16.25 42.0937 16.7212 42.0112 17.3325C42.0039 17.3877 42 17.4424 42 17.5C42 18.1899 42.5601 18.75 43.25 18.75Z" fill="#472880"/>
<path d="M5.75 64H20.75C21.4404 64 22 63.4404 22 62.75C22 62.0596 21.4404 61.5 20.75 61.5H17V37.5H19.5V39.4087C19.5 40.0845 20.0371 40.6377 20.7124 40.6582C25.0205 40.7876 29.2935 40.2021 33.4141 38.9146C41.3359 36.439 49.9424 36.7729 57.6479 39.8555L57.7856 39.9106C58.1709 40.0649 58.6074 40.0176 58.9507 39.7852C59.2939 39.5527 59.5 39.165 59.5 38.75C59.5 35.145 59.5 14.4292 59.5 11.25C59.5 10.7388 59.189 10.2793 58.7144 10.0894L58.5767 10.0342C50.3389 6.73877 41.1377 6.38135 32.6685 9.02832C28.8169 10.2319 24.8203 10.7808 20.7876 10.6592C20.4478 10.6499 20.1221 10.7764 19.8794 11.0117C19.6367 11.2471 19.5 11.5708 19.5 11.9087V12.5H17V8.30371C17.7993 7.39697 18.25 6.22266 18.25 5C18.25 2.24316 16.0068 0 13.25 0C10.4927 0 8.25 2.24316 8.25 5C8.25 6.22266 8.7002 7.39697 9.5 8.30322V61.5H5.75C5.05957 61.5 4.5 62.0596 4.5 62.75C4.5 63.4404 5.05957 64 5.75 64ZM22 21.9248C25.873 21.9131 29.707 21.3228 33.415 20.1641C35.0605 19.6484 36.6631 19.2715 38.4585 18.9771C39.1396 18.8657 39.6016 18.2227 39.4897 17.5415C39.3779 16.8604 38.7354 16.3984 38.0542 16.5103C36.1401 16.8242 34.4282 17.2271 32.6685 17.7783C29.2036 18.8608 25.6201 19.4121 22 19.4238V13.1758C25.873 13.1641 29.707 12.5728 33.4141 11.4146C41.1147 9.00781 49.4619 9.25684 57 12.1035V18.1968C54.208 17.2163 51.3169 16.5596 48.3838 16.2432C47.6982 16.1699 47.0811 16.6655 47.0073 17.3521C46.9331 18.0386 47.4297 18.6548 48.1157 18.729C51.1489 19.0562 54.1343 19.7715 57 20.8564V28.1938C49.1758 25.4561 40.6011 25.2993 32.6685 27.7783C29.2031 28.8608 25.6206 29.4121 22 29.4238V21.9248ZM22 31.9248C25.873 31.9131 29.707 31.3228 33.4141 30.1641C41.1147 27.7578 49.4619 28.0073 57 30.8545V36.9434C49.1758 34.2056 40.6011 34.0493 32.6685 36.5278C29.2036 37.6108 25.6201 38.1636 22 38.1753V31.9248ZM17 15H19.5V35H17V15ZM14.5 61.5H12V37.5H14.5V61.5ZM14.5 35H12V15H14.5V35ZM14.5 12.5H12V9.83984C12.4048 9.94482 12.8247 10 13.25 10C13.6753 10 14.0952 9.94482 14.5 9.84033V12.5ZM13.25 2.5C14.6284 2.5 15.75 3.62158 15.75 5C15.75 5.71094 15.4463 6.38867 14.9146 6.86279C14.4561 7.27393 13.8652 7.5 13.25 7.5C12.6348 7.5 12.0439 7.27393 11.5854 6.86279C11.5845 6.8623 11.584 6.86133 11.583 6.86035C11.0537 6.38867 10.75 5.71094 10.75 5C10.75 3.62158 11.8716 2.5 13.25 2.5Z" fill="#472880"/>
<ellipse cx="28.5" cy="50" rx="13.5" ry="14" fill="#E30020"/>
</g>
<defs>
<clipPath id="clip0">
<rect width="64" height="64" fill="white"/>
</clipPath>
</defs>
</svg>

<svg width="64" height="64" fill="none" xmlns="http://www.w3.org/2000/svg"><g clip-path="url(#clip0)"><path d="M43.25 18.75a1.25 1.25 0 10-.001-2.501 1.25 1.25 0 00.001 2.501z" fill="#472880"/><path d="M5.75 64h15a1.25 1.25 0 100-2.5H17v-24h2.5v1.909a1.25 1.25 0 001.212 1.25 38.628 38.628 0 0012.702-1.744 36.29 36.29 0 0124.234.94l.138.056A1.25 1.25 0 0059.5 38.75v-27.5c0-.511-.311-.97-.786-1.16l-.137-.056a38.796 38.796 0 00-25.908-1.006 36.093 36.093 0 01-11.881 1.631 1.251 1.251 0 00-1.288 1.25v.591H17V8.304A5 5 0 0018.25 5c0-2.757-2.243-5-5-5s-5 2.243-5 5c0 1.223.45 2.397 1.25 3.303V61.5H5.75a1.25 1.25 0 100 2.5zM22 21.925a38.593 38.593 0 0011.415-1.76 35.87 35.87 0 015.044-1.188 1.25 1.25 0 10-.405-2.467 38.353 38.353 0 00-5.386 1.268A36.103 36.103 0 0122 19.424v-6.248a38.6 38.6 0 0011.414-1.761A36.296 36.296 0 0157 12.104v6.093a38.454 38.454 0 00-8.616-1.954 1.25 1.25 0 00-.268 2.486A36 36 0 0157 20.856v7.338a38.81 38.81 0 00-24.331-.416A36.103 36.103 0 0122 29.424v-7.5zm0 10a38.582 38.582 0 0011.414-1.76 36.296 36.296 0 0123.586.69v6.088a38.813 38.813 0 00-24.331-.415A36.088 36.088 0 0122 38.175v-6.25zM17 15h2.5v20H17V15zm-2.5 46.5H12v-24h2.5v24zm0-26.5H12V15h2.5v20zm0-22.5H12V9.84a4.98 4.98 0 002.5 0v2.66zm-1.25-10c1.378 0 2.5 1.122 2.5 2.5a2.5 2.5 0 01-.835 1.863 2.49 2.49 0 01-3.33 0l-.002-.003A2.493 2.493 0 0110.75 5c0-1.378 1.122-2.5 2.5-2.5z" fill="#472880"/><ellipse cx="28.5" cy="50" rx="13.5" ry="14" fill="#E30020"/></g><defs><clipPath id="clip0"><path fill="#fff" d="M0 0h64v64H0z"/></clipPath></defs></svg>
